; generated by Slic3r 0.9.10b on 2013-08-02 at 20:38:14

; layer_height = 0.25
; perimeters = 1
; top_solid_layers = 3
; bottom_solid_layers = 3
; fill_density = 0.15
; perimeter_speed = 60
; infill_speed = 90
; travel_speed = 250
; nozzle_diameter = 0.35
; filament_diameter = 1.7
; extrusion_multiplier = 1.1
; perimeters extrusion width = 0.39mm
; infill extrusion width = 0.39mm
; solid infill extrusion width = 0.39mm
; top infill extrusion width = 0.39mm
; first layer extrusion width = 0.70mm

G21 ; set units to millimeters
M107
;Standard Profile for Series 1. Single Extruder
M104 S185
M301 P24.72 I0.88 D231.1
G28
G1 X120 Y115 Z15 F10000
G92 E0
G1 Y5 Z15 F5000
M109 S185
G1 F100 E50
G92 E0
G1 X50 Z0.3 F10000
G90 ; use absolute coordinates
G92 E0
M82 ; use absolute distances for extrusion
G1 F1800.000 E-3.00000
G92 E0
G1 Z0.350 F15000.000
G1 X56.090 Y82.331
G1 F1800.000 E3.00000
G1 X57.260 Y81.571 F1080.000 E3.14788
G1 X58.570 Y81.071 E3.29650
G1 X59.950 Y80.861 E3.44445
G1 X149.450 Y76.861 E12.94027
G1 X214.750 Y76.861 E19.86160
G1 X216.040 Y76.981 E19.99892
G1 X217.290 Y77.361 E20.13740
G1 X218.430 Y77.971 E20.27444
G1 X219.430 Y78.800 E20.41219
G1 X220.260 Y79.800 E20.54993
G1 X220.870 Y80.941 E20.68697
G1 X221.250 Y82.191 E20.82545
G1 X221.370 Y83.481 E20.96277
G1 X221.370 Y146.511 E27.64350
G1 X221.250 Y147.800 E27.78082
G1 X220.870 Y149.050 E27.91929
G1 X220.260 Y150.190 E28.05634
G1 X219.430 Y151.190 E28.19408
G1 X218.430 Y152.020 E28.33183
G1 X217.290 Y152.630 E28.46887
G1 X216.040 Y153.011 E28.60735
G1 X214.750 Y153.130 E28.74467
G1 X45.250 Y153.130 E46.71044
G1 X43.960 Y153.011 E46.84776
G1 X42.710 Y152.630 E46.98624
G1 X41.570 Y152.020 E47.12328
G1 X40.570 Y151.190 E47.26103
G1 X39.740 Y150.190 E47.39877
G1 X39.130 Y149.050 E47.53582
G1 X38.750 Y147.800 E47.67429
G1 X38.630 Y146.511 E47.81161
G1 X38.630 Y144.511 E48.02360
G1 X38.680 Y143.661 E48.11385
G1 X38.840 Y142.821 E48.20448
G1 X53.840 Y85.791 E54.45484
G1 X54.340 Y84.491 E54.60247
G1 X55.100 Y83.311 E54.75124
G1 X56.023 Y82.396 E54.88895
G1 F1800.000 E51.88895
G92 E0
G1 X71.938 Y122.207 F15000.000
G1 F1800.000 E3.00000
G1 X84.562 Y122.207 F756.000 E4.33815
G1 X84.562 Y134.832 E5.67629
G1 X71.938 Y134.832 E7.01444
G1 X71.938 Y122.301 E8.34265
G1 X75.438 Y107.312 F15000.000
G1 X75.438 Y91.688 F756.000 E9.99878
G1 X81.062 Y91.688 E10.59497
G1 X81.062 Y107.312 E12.25110
G1 X75.531 Y107.312 E12.83736
G1 X90.438 Y107.312 F15000.000
G1 X90.438 Y91.688 F756.000 E14.49349
G1 X96.062 Y91.688 E15.08968
G1 X96.062 Y107.312 E16.74581
G1 X90.531 Y107.312 E17.33207
G1 X101.068 Y108.047 F15000.000
G1 X117.692 Y108.047 F756.000 E19.09419
G1 X117.692 Y122.172 E20.59132
G1 X101.068 Y122.172 E22.35344
G1 X101.068 Y108.141 E23.84064
G1 F1800.000 E20.84064
G92 E0
G1 X123.122 Y84.480 F15000.000
G1 X139.281 Y144.238
G1 X104.468 Y123.047
G1 F1800.000 E3.00000
G1 X113.952 Y123.047 F756.000 E4.00533
G1 X113.952 Y134.832 E5.25444
G1 X104.468 Y134.832 E6.25977
G1 X104.468 Y123.141 E7.49895
G1 X104.280 Y122.860 F15000.000
G1 X104.280 Y135.019
G1 X120.750 Y145.019
G1 X120.938 Y144.832
G1 X135.938 Y144.832 F756.000 E9.08884
G1 X135.938 Y146.207 E9.23459
G1 X45.562 Y146.207 E18.81370
G1 X45.562 Y144.832 E18.95945
G1 X60.562 Y144.832 E20.54934
G1 X60.562 Y87.793 E26.59506
G1 X120.938 Y87.793 E32.99439
G1 X120.938 Y144.738 E39.03017
G1 X120.750 Y145.019 F15000.000
G1 X104.280 Y135.019
G1 X104.280 Y122.860
G1 X104.015 Y126.298
G1 X81.515 Y103.798 F1080.000 E42.40420
G1 X81.515 Y104.682 E42.49796
G1 X104.015 Y127.182 E45.87199
G1 X104.015 Y128.066 E45.96574
G1 X81.515 Y105.567 E49.33977
G1 X81.515 Y106.451 E49.43352
G1 X104.015 Y128.950 E52.80756
G1 X104.015 Y129.834 E52.90131
G1 X81.515 Y107.335 E56.27534
G1 X81.062 Y107.765 E56.34166
G1 X104.015 Y130.718 E59.78370
G1 X104.015 Y131.602 E59.87745
G1 X80.178 Y107.765 E63.45208
G1 X79.294 Y107.765 E63.54583
G1 X104.015 Y132.486 E67.25304
G1 X104.015 Y133.370 E67.34679
G1 X78.410 Y107.765 E71.18658
G1 X77.525 Y107.765 E71.28033
G1 X104.015 Y134.255 E75.25271
G1 X104.015 Y135.139 E75.34646
G1 X76.641 Y107.765 E79.45142
G1 X75.757 Y107.765 E79.54517
G1 X113.746 Y145.754 E85.24204
G1 X114.630 Y145.754 E85.33579
G1 X104.161 Y135.285 E86.90578
G1 X105.045 Y135.285 E86.99953
G1 X115.514 Y145.754 E88.56952
G1 X116.398 Y145.754 E88.66327
G1 X105.929 Y135.285 E90.23326
G1 X106.813 Y135.285 E90.32701
G1 X117.282 Y145.754 E91.89700
G1 X118.167 Y145.754 E91.99076
G1 X107.697 Y135.285 E93.56075
G1 X108.581 Y135.285 E93.65450
G1 X119.051 Y145.754 E95.22449
G1 X119.935 Y145.754 E95.31824
G1 X109.465 Y135.285 E96.88823
G1 X110.350 Y135.285 E96.98198
G1 X120.485 Y145.420 E98.50185
G1 X120.485 Y144.536 E98.59560
G1 X111.234 Y135.285 E99.98289
G1 X112.118 Y135.285 E100.07664
G1 X120.485 Y143.652 E101.33134
G1 X120.485 Y142.768 E101.42509
G1 X113.002 Y135.285 E102.54722
G1 X113.886 Y135.285 E102.64097
G1 X120.485 Y141.883 E103.63050
G1 X120.485 Y140.999 E103.72425
G1 X114.405 Y134.920 E104.63591
G1 X114.405 Y134.036 E104.72966
G1 X120.485 Y140.115 E105.64132
G1 X120.485 Y139.231 E105.73507
G1 X114.405 Y133.152 E106.64673
G1 X114.405 Y132.268 E106.74048
G1 X120.485 Y138.347 E107.65214
G1 X120.485 Y137.463 E107.74589
G1 X114.405 Y131.384 E108.65755
G1 X114.405 Y130.500 E108.75130
G1 X120.485 Y136.579 E109.66296
G1 X120.485 Y135.695 E109.75671
G1 X114.405 Y129.615 E110.66836
G1 X114.405 Y128.731 E110.76212
G1 X120.485 Y134.811 E111.67377
G1 X120.485 Y133.926 E111.76752
G1 X114.405 Y127.847 E112.67918
G1 X114.405 Y126.963 E112.77293
G1 X120.485 Y133.042 E113.68459
G1 X120.485 Y132.158 E113.77834
G1 X114.405 Y126.079 E114.69000
G1 X114.405 Y125.195 E114.78375
G1 X120.485 Y131.274 E115.69541
G1 X120.485 Y130.390 E115.78916
G1 X114.405 Y124.311 E116.70082
G1 X114.405 Y123.427 E116.79457
G1 X120.485 Y129.506 E117.70623
G1 X120.485 Y128.622 E117.79998
G1 X114.488 Y122.625 E118.69928
G1 X115.372 Y122.625 E118.79303
G1 X120.485 Y127.738 E119.55975
G1 X120.485 Y126.854 E119.65350
G1 X116.256 Y122.625 E120.28764
G1 X117.140 Y122.625 E120.38139
G1 X120.485 Y125.969 E120.88294
G1 X120.485 Y125.085 E120.97669
G1 X118.024 Y122.625 E121.34567
G1 X118.145 Y121.862 E121.42758
G1 X120.485 Y124.201 E121.77838
G1 X120.485 Y123.317 E121.87213
G1 X118.145 Y120.978 E122.22293
G1 X118.145 Y120.094 E122.31668
G1 X120.485 Y122.433 E122.66748
G1 X120.485 Y121.549 E122.76123
G1 X118.145 Y119.210 E123.11203
G1 X118.145 Y118.325 E123.20578
G1 X120.485 Y120.665 E123.55658
G1 X120.485 Y119.781 E123.65034
G1 X118.145 Y117.441 E124.00114
G1 X118.145 Y116.557 E124.09489
G1 X120.485 Y118.896 E124.44569
G1 X120.485 Y118.012 E124.53944
G1 X118.145 Y115.673 E124.89024
G1 X118.145 Y114.789 E124.98399
G1 X120.485 Y117.128 E125.33479
G1 X120.485 Y116.244 E125.42854
G1 X118.145 Y113.905 E125.77934
G1 X118.145 Y113.021 E125.87309
G1 X120.485 Y115.360 E126.22389
G1 X120.485 Y114.476 E126.31764
G1 X118.145 Y112.137 E126.66844
G1 X118.145 Y111.253 E126.76219
G1 X120.485 Y113.592 E127.11299
G1 X120.485 Y112.708 E127.20674
G1 X118.145 Y110.368 E127.55754
G1 X118.145 Y109.484 E127.65129
G1 X120.485 Y111.824 E128.00209
G1 X120.485 Y110.939 E128.09584
G1 X118.145 Y108.600 E128.44664
G1 X118.145 Y107.716 E128.54040
G1 X120.485 Y110.055 E128.89120
G1 X120.485 Y109.171 E128.98495
G1 X99.559 Y88.246 E132.12296
G1 X100.443 Y88.246 E132.21671
G1 X120.485 Y108.287 E135.22214
G1 X120.485 Y107.403 E135.31589
G1 X101.327 Y88.246 E138.18873
G1 X102.212 Y88.246 E138.28248
G1 X120.485 Y106.519 E141.02274
G1 X120.485 Y105.635 E141.11649
G1 X103.096 Y88.246 E143.72417
G1 X103.980 Y88.246 E143.81792
G1 X120.485 Y104.751 E146.29301
G1 X120.485 Y103.867 E146.38676
G1 X104.864 Y88.246 E148.72927
G1 X105.748 Y88.246 E148.82302
G1 X120.485 Y102.982 E151.03295
G1 X120.485 Y102.098 E151.12670
G1 X106.632 Y88.246 E153.20405
G1 X107.516 Y88.246 E153.29780
G1 X120.485 Y101.214 E155.24256
G1 X120.485 Y100.330 E155.33631
G1 X108.400 Y88.246 E157.14848
G1 X109.285 Y88.246 E157.24223
G1 X120.485 Y99.446 E158.92183
G1 X120.485 Y98.562 E159.01558
G1 X110.169 Y88.246 E160.56259
G1 X111.053 Y88.246 E160.65634
G1 X120.485 Y97.678 E162.07076
G1 X120.485 Y96.794 E162.16451
G1 X111.937 Y88.246 E163.44636
G1 X112.821 Y88.246 E163.54011
G1 X120.485 Y95.910 E164.68937
G1 X120.485 Y95.025 E164.78312
G1 X113.705 Y88.246 E165.79979
G1 X114.589 Y88.246 E165.89354
G1 X120.485 Y94.141 E166.77764
G1 X120.485 Y93.257 E166.87139
G1 X115.473 Y88.246 E167.62289
G1 X116.357 Y88.246 E167.71665
G1 X120.485 Y92.373 E168.33557
G1 X120.485 Y91.489 E168.42932
G1 X117.242 Y88.246 E168.91566
G1 X118.126 Y88.246 E169.00941
G1 X120.485 Y90.605 E169.36317
G1 X120.485 Y89.721 E169.45692
G1 X119.010 Y88.246 E169.67810
G1 X119.894 Y88.246 E169.77185
G1 X120.485 Y88.837 E169.86044
G1 X118.023 Y107.594 F15000.000
G1 X98.675 Y88.246 F1080.000 E172.76194
G1 X97.791 Y88.246 E172.85569
G1 X117.139 Y107.594 E175.75720
G1 X116.255 Y107.594 E175.85095
G1 X96.907 Y88.246 E178.75245
G1 X96.023 Y88.246 E178.84620
G1 X115.371 Y107.594 E181.74771
G1 X114.487 Y107.594 E181.84146
G1 X95.139 Y88.246 E184.74296
G1 X94.255 Y88.246 E184.83671
G1 X113.603 Y107.594 E187.73821
G1 X117.880 Y107.860 F15000.000
G1 X117.880 Y122.359
G1 X104.280 Y122.860
G1 X103.878 Y122.625
G1 X104.015 Y122.761 F1080.000 E187.75865
G1 X104.015 Y123.645 E187.85240
G1 X102.994 Y122.625 E188.00541
G1 X102.110 Y122.625 E188.09916
G1 X104.015 Y124.529 E188.38476
G1 X104.015 Y125.413 E188.47851
G1 X101.226 Y122.625 E188.89669
G1 X100.615 Y122.013 F15000.000
G1 X81.515 Y102.914 F1080.000 E191.76086
G1 X81.515 Y102.030 E191.85461
G1 X100.615 Y121.129 E194.71877
G1 X100.615 Y120.245 E194.81252
G1 X81.515 Y101.146 E197.67668
G1 X81.515 Y100.262 E197.77043
G1 X100.615 Y119.361 E200.63460
G1 X100.615 Y118.477 E200.72835
G1 X81.515 Y99.378 E203.59251
G1 X81.515 Y91.421 F15000.000
G1 X89.985 Y99.890 F1080.000 E204.86258
G1 X89.985 Y100.774 E204.95633
G1 X81.515 Y92.305 E206.22640
G1 X81.515 Y93.189 E206.32015
G1 X89.985 Y101.658 E207.59021
G1 X89.985 Y102.542 E207.68396
G1 X81.515 Y94.073 E208.95403
G1 X81.515 Y94.957 E209.04778
G1 X89.985 Y103.426 E210.31785
G1 X89.985 Y104.311 E210.41160
G1 X81.515 Y95.841 E211.68167
G1 X81.515 Y96.725 E211.77542
G1 X89.985 Y105.195 E213.04549
G1 X89.985 Y106.079 E213.13924
G1 X81.515 Y97.610 E214.40930
G1 X81.515 Y98.494 E214.50305
G1 X89.985 Y106.963 E215.77312
G1 X90.787 Y107.765 F15000.000
G1 X100.615 Y117.593 F1080.000 E217.24688
G1 X100.615 Y116.709 E217.34063
G1 X91.671 Y107.765 E218.68180
G1 X92.555 Y107.765 E218.77555
G1 X100.615 Y115.825 E219.98413
G1 X100.615 Y114.941 E220.07788
G1 X93.439 Y107.765 E221.15389
G1 X94.324 Y107.765 E221.24764
G1 X100.615 Y114.056 E222.19106
G1 X100.615 Y113.172 E222.28481
G1 X95.208 Y107.765 E223.09565
G1 X96.092 Y107.765 E223.18940
G1 X100.615 Y112.288 E223.86765
G1 X100.615 Y111.404 E223.96140
G1 X96.515 Y107.305 E224.57614
G1 X96.515 Y106.421 E224.66989
G1 X100.615 Y110.520 E225.28462
G1 X100.615 Y109.636 E225.37837
G1 X96.515 Y105.537 E225.99310
G1 X96.515 Y104.652 E226.08685
G1 X100.615 Y108.752 E226.70159
G1 X100.615 Y107.868 E226.79534
G1 X96.515 Y103.768 E227.41007
G1 X96.515 Y102.884 E227.50382
G1 X101.225 Y107.594 E228.21012
G1 X102.109 Y107.594 E228.30387
G1 X96.515 Y102.000 E229.14276
G1 X96.515 Y101.116 E229.23651
G1 X102.993 Y107.594 E230.20798
G1 X103.878 Y107.594 E230.30173
G1 X96.515 Y100.232 E231.40578
G1 X96.515 Y99.348 E231.49953
G1 X104.762 Y107.594 E232.73617
G1 X105.646 Y107.594 E232.82992
G1 X96.515 Y98.464 E234.19914
G1 X96.515 Y97.580 E234.29289
G1 X106.530 Y107.594 E235.79469
G1 X107.414 Y107.594 E235.88844
G1 X96.515 Y96.695 E237.52282
G1 X96.515 Y95.811 E237.61657
G1 X108.298 Y107.594 E239.38354
G1 X109.182 Y107.594 E239.47729
G1 X96.515 Y94.927 E241.37685
G1 X96.515 Y94.043 E241.47060
G1 X110.066 Y107.594 E243.50273
G1 X110.950 Y107.594 E243.59648
G1 X96.515 Y93.159 E245.76120
G1 X96.515 Y92.275 E245.85495
G1 X111.835 Y107.594 E248.15226
G1 X112.719 Y107.594 E248.24601
G1 X96.515 Y91.391 E250.67589
G1 X96.359 Y91.235 F15000.000
G1 X93.370 Y88.246 F1080.000 E251.12409
G1 X92.486 Y88.246 E251.21784
G1 X95.475 Y91.235 E251.66605
G1 X94.591 Y91.235 E251.75980
G1 X91.602 Y88.246 E252.20800
G1 X90.718 Y88.246 E252.30175
G1 X93.707 Y91.235 E252.74995
G1 X92.823 Y91.235 E252.84370
G1 X89.834 Y88.246 E253.29190
G1 X88.950 Y88.246 E253.38565
G1 X91.939 Y91.235 E253.83385
G1 X91.055 Y91.235 E253.92760
G1 X88.066 Y88.246 E254.37580
G1 X87.182 Y88.246 E254.46955
G1 X90.170 Y91.235 E254.91775
G1 X89.985 Y91.933 E254.99438
G1 X86.298 Y88.246 E255.54730
G1 X85.413 Y88.246 E255.64105
G1 X89.985 Y92.817 E256.32656
G1 X89.985 Y93.701 E256.42031
G1 X84.529 Y88.246 E257.23840
G1 X83.645 Y88.246 E257.33215
G1 X89.985 Y94.585 E258.28282
G1 X89.985 Y95.469 E258.37657
G1 X82.761 Y88.246 E259.45983
G1 X81.877 Y88.246 E259.55358
G1 X89.985 Y96.354 E260.76942
G1 X89.985 Y97.238 E260.86317
G1 X80.993 Y88.246 E262.21159
G1 X80.109 Y88.246 E262.30534
G1 X89.985 Y98.122 E263.78635
G1 X89.985 Y99.006 E263.88010
G1 X79.225 Y88.246 E265.49369
G1 X78.341 Y88.246 E265.58744
G1 X81.329 Y91.235 E266.03564
G1 X80.445 Y91.235 E266.12939
G1 X77.456 Y88.246 E266.57759
G1 X76.572 Y88.246 E266.67134
G1 X79.561 Y91.235 E267.11954
G1 X78.677 Y91.235 E267.21329
G1 X75.688 Y88.246 E267.66150
G1 X74.804 Y88.246 E267.75525
G1 X77.793 Y91.235 E268.20345
G1 X76.909 Y91.235 E268.29720
G1 X73.920 Y88.246 E268.74540
G1 X73.036 Y88.246 E268.83915
G1 X76.025 Y91.235 E269.28735
G1 X75.140 Y91.235 E269.38110
G1 X72.152 Y88.246 E269.82930
G1 X71.268 Y88.246 E269.92305
G1 X74.985 Y91.963 E270.48046
G1 X74.985 Y92.847 E270.57421
G1 X70.383 Y88.246 E271.26421
G1 X69.499 Y88.246 E271.35796
G1 X74.985 Y93.731 E272.18054
G1 X74.985 Y94.615 E272.27429
G1 X68.615 Y88.246 E273.22945
G1 X67.731 Y88.246 E273.32320
G1 X74.985 Y95.499 E274.41095
G1 X74.985 Y96.383 E274.50470
G1 X66.847 Y88.246 E275.72502
G1 X65.963 Y88.246 E275.81878
G1 X74.985 Y97.268 E277.17169
G1 X74.985 Y98.152 E277.26544
G1 X65.079 Y88.246 E278.75093
G1 X64.195 Y88.246 E278.84468
G1 X74.985 Y99.036 E280.46276
G1 X74.985 Y99.920 E280.55651
G1 X63.311 Y88.246 E282.30718
G1 X62.426 Y88.246 E282.40093
G1 X74.985 Y100.804 E284.28417
G1 X74.985 Y101.688 E284.37792
G1 X61.542 Y88.246 E286.39375
G1 X61.015 Y88.603 E286.46126
G1 X74.985 Y102.572 E288.55612
G1 X74.985 Y103.456 E288.64987
G1 X61.015 Y89.487 E290.74472
G1 X61.015 Y90.371 E290.83847
G1 X74.985 Y104.340 E292.93333
G1 X74.985 Y105.225 E293.02708
G1 X61.015 Y91.255 E295.12194
G1 X61.015 Y92.139 E295.21569
G1 X74.985 Y106.109 E297.31055
G1 X74.985 Y106.993 E297.40430
G1 X61.015 Y93.024 E299.49916
G1 X61.015 Y93.908 E299.59291
G1 X112.862 Y145.754 E307.36791
G1 X111.978 Y145.754 E307.46166
G1 X61.015 Y94.792 E315.10407
G1 X61.015 Y95.676 E315.19782
G1 X111.094 Y145.754 E322.70765
G1 X110.209 Y145.754 E322.80140
G1 X61.015 Y96.560 E330.17865
G1 X61.015 Y97.444 E330.27240
G1 X109.325 Y145.754 E337.51706
G1 X108.441 Y145.754 E337.61081
G1 X85.015 Y122.328 E341.12380
G1 X85.015 Y123.212 E341.21756
G1 X107.557 Y145.754 E344.59796
G1 X106.673 Y145.754 E344.69171
G1 X85.015 Y124.096 E347.93954
G1 X85.015 Y124.981 E348.03329
G1 X105.789 Y145.754 E351.14853
G1 X104.905 Y145.754 E351.24228
G1 X85.015 Y125.865 E354.22494
G1 X85.015 Y126.749 E354.31869
G1 X104.021 Y145.754 E357.16877
G1 X103.137 Y145.754 E357.26252
G1 X85.015 Y127.633 E359.98001
G1 X85.015 Y128.517 E360.07376
G1 X102.252 Y145.754 E362.65867
G1 X101.368 Y145.754 E362.75242
G1 X85.015 Y129.401 E365.20474
G1 X85.015 Y130.285 E365.29849
G1 X100.484 Y145.754 E367.61824
G1 X99.600 Y145.754 E367.71199
G1 X85.015 Y131.169 E369.89914
G1 X85.015 Y132.053 E369.99289
G1 X98.716 Y145.754 E372.04747
G1 X97.832 Y145.754 E372.14122
G1 X85.015 Y132.938 E374.06321
G1 X85.015 Y133.822 E374.15696
G1 X96.948 Y145.754 E375.94637
G1 X96.064 Y145.754 E376.04012
G1 X85.015 Y134.706 E377.69694
G1 X84.710 Y135.285 E377.76634
G1 X95.180 Y145.754 E379.33634
G1 X94.295 Y145.754 E379.43009
G1 X83.826 Y135.285 E381.00008
G1 X82.942 Y135.285 E381.09383
G1 X93.411 Y145.754 E382.66382
G1 X92.527 Y145.754 E382.75757
